X: 4414
T: "CORONATION" WALTZ
R: Waltz
%R: waltz
B: James Kerr "Merry Melodies" v.4 p.46 #414
Z: 2016 John Chambers <jc:trillian.mit.edu>
M: 3/4
L: 1/8
K: C
(ge) |\
fedcBA | A2G2^FG | A2G2^FG | B2A2^GA |\
Bcdefg | a2g2ea |[1 g2f2dg | (f2e2 :|[2 g2(fe)fd | c4 ||
|:\
g2 |\
(eg)ggg2 | (^fg)ggg2 | (ag)ggg2 | (^fg)ggg2 |\
(=f3edc) | (d3cBA) | B2(gf)de | c4 :|

%%sep 1 1 500
%%sep 1 1 500

